images/icon_print.svg

<svg width="30" height="26" viewBox="0 0 30 26" fill="none" xmlns="http://www.w3.org/2000/svg">
<path d="M3.51955 5.53073H5.94972V0.670391C5.94972 0.670391 6.28492 0 6.62011 0H23.2961C23.2961 0 23.9665 0.335196 23.9665 0.670391V5.53073H26.3966C26.3966 5.53073 27.067 5.86592 27.067 6.20112V12.8212H28.8268C29.4972 12.8212 30 13.324 30 13.9944V24.4693C30 25.1397 29.4972 25.6425 28.8268 25.6425H1.17318C0.502793 25.6425 0 25.1397 0 24.4693V13.9944C0 13.324 0.502793 12.8212 1.17318 12.8212H2.93296V6.28492C2.93296 6.28492 3.26816 5.61453 3.60335 5.61453H3.51955V5.53073ZM4.18994 12.8212H5.86592V6.95531H4.18994V12.905H4.27374L4.18994 12.8212ZM7.2905 12.8212H22.6257V6.28492V1.42458H7.2905V6.20112V12.8212ZM24.0503 12.8212H25.7263V6.95531H24.0503V12.905V12.8212ZM27.6536 15.1676H2.34637V23.3799H5.94972V20.8659C5.94972 20.8659 6.28492 20.1955 6.62011 20.1955H23.2961C23.2961 20.1955 23.9665 20.5307 23.9665 20.8659V23.3799H27.5698V15.1676H27.6536ZM7.2905 23.3799H22.6257V21.5363H7.2905V23.3799Z" fill="#0F3D5F"/>
</svg>

<?xml version="1.0" encoding="UTF-8"?><svg id="_圖層_1" xmlns="http://www.w3.org/2000/svg" viewBox="0 0 30 25.64"><defs><style>.cls-1{fill:#444;}</style></defs><path class="cls-1" d="M3.52,5.53h2.43V.67s.34-.67.67-.67h16.68s.67.34.67.67v4.86h2.43s.67.34.67.67v6.62h1.76c.67,0,1.17.5,1.17,1.17v10.47c0,.67-.5,1.17-1.17,1.17H1.17c-.67,0-1.17-.5-1.17-1.17v-10.47c0-.67.5-1.17,1.17-1.17h1.76v-6.54s.34-.67.67-.67h-.08v-.08ZM4.19,12.82h1.68v-5.87h-1.68v5.95h.08l-.08-.08ZM7.29,12.82h15.34V1.42H7.29v11.4ZM24.05,12.82h1.68v-5.87h-1.68v5.95-.08ZM27.65,15.17H2.35v8.21h3.6v-2.51s.34-.67.67-.67h16.68s.67.34.67.67v2.51h3.6v-8.21h.08ZM7.29,23.38h15.34v-1.84H7.29v1.84Z"/></svg>
